X:260
T: Flying Squirrel (with piano acc.)
C: BB
R: polka
Q: 300
M: 2/4
L: 1/8
V: 1 program 1 21 %acc
V: 2 volume=70 m=D program 1 01 clef=bass m=D
K: G
[V:1] "G"D>EGA |"Em"Bd "D"A2|"G"Bd"Am"Ac |"G"BA"Em"GE|"G"D>EGA |"Em"Bd "Am"A>B|\
"D7"cAFA |"G"G2 G2 :|
[V:2] [G,,4D,4B,4]|[E,2B,2G2][D,2A,2F2]|[G,2D2B2][A,2E2c2]|[G2d2B,2][E,2B,2G2]|\
[G,,4D,4B,4]|[E,2B,2G2][A,,2E,2C2]|[D,4A,4F,4C4]|G,2[G,,2D,2B,2]:|
%
[V:1] "G"gdgd| b>age|"D"fdfd|a>gfd|"C"ecec| "G"dBdB|"D7"cAFA|"G"G2 G2 :|
[V:2] G,,2[G2D2B2]|B,,2[G2D2B2]|D,2[D2A2F2]|A,,2[D2F2A2]|C,2[C2G2E2]|G,,2[G2D2B2]|\
[D,4A,4F,4C4]| G,2[G,,2D,2B,2] :|
%%%%%%%%%%%%%%%%%%%%%%%%%%%%%%%%%%%%%%%%%%%
